svg/300/sharp/outlet-fill.svg

<svg xmlns="http://www.w3.org/2000/svg" width="48" height="48" viewBox="0 -960 960 960"><path d="M337.308-489.615h45.384v-165.384h-45.384v165.384Zm80 224.614h125.384v-125.384H417.308v125.384Zm160-224.614h45.384v-165.384h-45.384v165.384Zm-96.975 389.614q-78.955 0-147.897-29.92t-120.755-81.71q-51.814-51.791-81.747-120.777t-29.933-148.025q0-78.655 29.92-147.864t81.71-120.522q51.791-51.314 120.777-81.247t148.025-29.933q78.655 0 147.864 29.92t120.522 81.21q51.314 51.291 81.247 120.629 29.933 69.337 29.933 147.907 0 78.955-29.92 147.897t-81.21 120.571q-51.291 51.629-120.629 81.746-69.337 30.118-147.907 30.118Z"/></svg>

<svg xmlns="http://www.w3.org/2000/svg" width="48" height="48" viewBox="0 -960 960 960"><path d="M337.31-489.62h45.38V-655h-45.38v165.38Zm80 224.62h125.38v-125.38H417.31V-265Zm160-224.62h45.38V-655h-45.38v165.38ZM480.33-100q-78.95 0-147.89-29.92-68.95-29.92-120.76-81.71-51.81-51.79-81.75-120.78Q100-401.39 100-480.43q0-78.66 29.92-147.87 29.92-69.21 81.71-120.52 51.79-51.31 120.78-81.25Q401.39-860 480.43-860q78.66 0 147.87 29.92 69.21 29.92 120.52 81.21 51.31 51.29 81.25 120.63Q860-558.9 860-480.33q0 78.95-29.92 147.89-29.92 68.95-81.21 120.57-51.29 51.63-120.63 81.75Q558.9-100 480.33-100Z"/></svg>
